X: 24
T: MOURBON'S
%R: hornpipe
B: Jean White "100 Popular Hornpipes, Reels, Jigs and Country Dances", Boston 1880 p.10
F: http://www.loc.gov/resource/sm1880.09124.0#seq-1
Z: 2014 John Chambers <jc:trillian.mit.edu>
M: C|
L: 1/8
K: A
% - - - - - - - - - - - - - - - - - - - - - - - - - - - - -
c>B |\
A>cf>A G>Be>G | F>G (3ABc E3C | D>EF>D C>DE>C | B>dG>B A>GF>E |
A>cf>A G>Be>G | F>G (3ABc E3C | D>FA>d c>BA>G | B2A2 A2 :|
|: (3cBA |\
c>Ae>A f>A (3cBA | c>Ae>A f>A (3cBA | c>Ae>A f>Ag>A | (3fga g>f e3B |
c>ea>c B>df>B | A>G (3ABc E3C | D>FA>d c>BA>G | B2A2 A2 H:|
% - - - - - - - - - - - - - - - - - - - - - - - - - - - - -

%%sep 1 1 500
%%sep 1 1 500
